src/assets/userDetailImg4.svg

<svg width="72" height="72" viewBox="0 0 72 72" fill="none" xmlns="http://www.w3.org/2000/svg">
<circle cx="36" cy="36" r="35.5" fill="white" stroke="#DDDDDD"/>
<path d="M41.9996 30.0004C41.9996 26.6853 39.3145 24.0002 35.9994 24.0002C32.6843 24.0002 29.9992 26.6853 29.9992 30.0004C29.9992 33.3155 32.6843 36.0006 35.9994 36.0006C39.3145 36.0006 41.9996 33.3155 41.9996 30.0004ZM32.9993 30.0004C32.9993 28.3429 34.3418 27.0003 35.9994 27.0003C37.6569 27.0003 38.9995 28.3429 38.9995 30.0004C38.9995 31.658 37.6569 33.0005 35.9994 33.0005C34.3418 33.0005 32.9993 31.658 32.9993 30.0004Z" fill="#F6AE24"/>
<path d="M22.5964 39.9758L18.0962 51.9762C17.8037 52.7487 18.2012 53.6187 18.9738 53.9038C19.1388 53.9638 19.3188 54.0013 19.4988 54.0013H52.4999C53.325 54.0013 54 53.3262 54 52.5012C54 52.3212 53.97 52.1487 53.9025 51.9762L49.4023 39.9758C49.1848 39.3907 48.6223 39.0007 47.9998 39.0007H45.5097C47.1223 36.2781 47.9848 33.1655 47.9998 30.0004C47.9998 23.3702 42.6221 18 35.9994 18C29.3766 18 23.9989 23.3702 23.9989 30.0004C24.1565 33.1505 25.0265 36.2331 26.5415 39.0007H23.9989C23.3764 39.0007 22.8139 39.3907 22.5964 39.9758ZM35.9994 21.0001C40.972 21.0001 44.9997 25.0277 44.9997 30.0004C44.9997 37.9432 38.2494 43.2084 35.9994 44.7384C30.7567 41.6108 27.3891 36.0981 26.9991 30.0004C26.9991 25.0277 31.0267 21.0001 35.9994 21.0001ZM28.4991 42.0008C30.3442 44.3634 32.6392 46.336 35.2493 47.806C35.7144 48.0761 36.2844 48.0761 36.7494 47.806C39.2845 46.2535 41.5421 44.2884 43.4321 42.0008H46.9573L50.3324 51.0012H21.6664L25.0415 42.0008H28.4991Z" fill="#F6AE24"/>
</svg>

<svg xmlns="http://www.w3.org/2000/svg" width="72" height="72" fill="none"><circle cx="36" cy="36" r="35.5" fill="#fff" stroke="#DDD"/><path fill="#F6AE24" d="M42 30c0-3.315-2.685-6-6-6s-6 2.685-6 6 2.684 6 6 6 6-2.684 6-6m-9 0a3 3 0 1 1 6 0 3 3 0 1 1-6 0"/><path fill="#F6AE24" d="m22.596 39.976-4.5 12a1.496 1.496 0 0 0 .878 1.928c.165.06.345.097.525.097h33c.826 0 1.501-.675 1.501-1.5 0-.18-.03-.352-.097-.525l-4.5-12A1.5 1.5 0 0 0 48 39h-2.49A17.85 17.85 0 0 0 48 30C48 23.37 42.622 18 36 18c-6.623 0-12.001 5.37-12.001 12a20.94 20.94 0 0 0 2.543 9h-2.543a1.5 1.5 0 0 0-1.403.976M36 21c4.973 0 9 4.028 9 9 0 7.943-6.75 13.208-9 14.738A18.54 18.54 0 0 1 27 30c0-4.972 4.028-9 9-9m-7.5 21a22.7 22.7 0 0 0 6.75 5.806 1.49 1.49 0 0 0 1.5 0 26.9 26.9 0 0 0 6.683-5.805h3.525l3.375 9H21.666l3.375-9z"/></svg>
